X: 23
M: C
L: 1/8
K: G
gd |\
|: AB |\
c2c2 c2AB | cBAG F2D2 | d2d2 d2ef | gfed cBAG |
e2e2 egfg | d2d2 dgfg | dBec BAGF | G2G2 G2 :|




